build/img/sprite/phone.svg

<svg width="24" height="24" viewBox="0 0 24 24" fill="none" xmlns="http://www.w3.org/2000/svg">
<path d="M22.6973 16.6507C21.8573 16.6307 20.8 16.5813 20.132 16.464C19.4093 16.336 18.54 16.088 17.928 15.8973C17.448 15.748 16.9253 15.88 16.5693 16.2347L13.6133 19.1733C11.5707 18.0973 9.93467 16.844 8.54933 15.4507C7.156 14.0653 5.90267 12.4293 4.82667 10.3867L7.76534 7.42933C8.12 7.07333 8.252 6.55067 8.10267 6.07067C7.91334 5.46 7.664 4.59067 7.53733 3.868C7.41867 3.2 7.37067 2.14267 7.34934 1.30267C7.332 0.576 6.74 0 6.01334 0H1.33333C0.749334 0 0 0.437334 0 1.33333C0 7.38533 2.45333 13.1653 6.62133 17.3787C10.8347 21.5467 16.6147 24 22.6667 24C23.5627 24 24 23.2507 24 22.6667V17.9867C24 17.26 23.424 16.668 22.6973 16.6507L22.6973 16.6507Z" fill="#EE3D48"/>
</svg>

<svg width="24" height="24" viewBox="0 0 24 24" fill="none" xmlns="http://www.w3.org/2000/svg"><path d="M22.697 16.65c-.84-.02-1.897-.069-2.565-.186-.723-.128-1.592-.376-2.204-.567a1.356 1.356 0 00-1.359.338l-2.956 2.938a20.503 20.503 0 01-5.064-3.722 20.504 20.504 0 01-3.722-5.064l2.938-2.958c.355-.356.487-.878.338-1.358-.19-.611-.439-1.48-.566-2.203-.118-.668-.166-1.725-.188-2.565A1.333 1.333 0 006.013 0h-4.68C.75 0 0 .437 0 1.333 0 7.385 2.453 13.165 6.621 17.38 10.835 21.547 16.615 24 22.667 24c.896 0 1.333-.75 1.333-1.333v-4.68c0-.727-.576-1.319-1.303-1.336z" fill="#EE3D48"/></svg>
